X: 19220
T: Isolation
R: waltz
M: 3/4
K: Fdorian
|:G2 {E} DEDE|G2 {E} DEDE|B4 A2|G6|1 c6|B4 A2|G6-|G6:|2 c6|d4 e2|c6-|c6||
|:gedcde|gedcde|fdcBcd|fdcBcd|
edcBcd|edcBcd|dcBcdf|dcBcdf:|
|:g>e gege|g>e gege|b>g bgbg|b>g bgbg|
a>e aeae|a>e aeae|f>d fdfd|1 f>d efga:|2 f>d fdfd||

